X: 38117
T: Sport Of The Chase, The
R: slip jig
M: 9/8
K: Gmajor
|:G2 G B2 G BdB|G2 G B2 G BdB|D2 D F2 D FAF|D2 D F2 D F/G/AF:|
G2 G g2 d BdB|G2 G g2 d B/c/dB|c2 c e2 c ege|d2 d f2 d f/g/af|
gdg gdg gdB|gdg gdg gdG|ece ece ecA|fdf fd/e/f fga||

